Papirus/48x48/apps/albion-online.svg

<svg xmlns="http://www.w3.org/2000/svg" width="48" height="48" version="1.1">
 <path style="opacity:0.2" d="m 18.014487,22.999972 h 12 v 16.000025 l -5.999999,5.999962 -6.000001,-5.999962 z"/>
 <path style="fill:#afafb1" d="m 18.014487,21.999947 h 12 v 16.000025 l -5.999999,5.999962 -6.000001,-5.999962 z"/>
 <path style="fill:#e4e4e4" d="m 18.014487,21.999947 h 6.000001 v 21.999987 l -6.000001,-5.999962 z"/>
 <rect style="opacity:0.2" width="8.001" height="27.999" x="15.01" y="-38" rx="3.999" ry="3.999" transform="rotate(90)"/>
 <rect style="fill:#ec8a2b" width="8.001" height="27.999" x="13.98" y="-38" rx="3.999" ry="3.999" transform="rotate(90)"/>
 <rect style="fill:#d13808" width="8.001" height="10.001" x="20.01" y="4.01"/>
 <rect style="opacity:0.2" width="12" height="3.999" x="18" y="4.99" rx="1.999" ry="1.999"/>
 <rect style="fill:#ec8a2b" width="12" height="3.999" x="18" y="4.01" rx="1.999" ry="1.999"/>
 <path style="opacity:0.2;fill:#ffffff" d="m 14.014487,13.999959 c -2.216,0 -4,1.784 -4,4 0,0.171262 0.02814,0.334523 0.04883,0.5 0.246986,-1.975674 1.906432,-3.5 3.95117,-3.5 h 20 c 2.044738,0 3.704184,1.524326 3.951172,3.5 0.02069,-0.165477 0.04883,-0.328738 0.04883,-0.5 0,-2.216 -1.784,-4 -4,-4 z"/>
 <path style="opacity:0.2;fill:#ffffff" d="m 20.014487,3.9999589 c -1.108,0 -2,0.8920001 -2,2 0,0.1738347 0.02901,0.3394094 0.07031,0.5 0.221954,-0.8629931 0.995525,-1.5 1.92969,-1.5 h 8 c 0.934165,0 1.707736,0.6370069 1.929688,1.5 0.0413,-0.1605906 0.07031,-0.3261653 0.07031,-0.5 0,-1.1079999 -0.892,-2 -2,-2 z"/>
</svg>

<svg xmlns="http://www.w3.org/2000/svg" width="48" height="48" version="1.1">
 <path style="opacity:0.2" d="M 18,22.999972 H 30 V 38.999997 L 24.000001,44.999959 18,38.999997 Z"/>
 <path style="fill:#afafb1" d="M 18,21.999947 H 30 V 37.999972 L 24.000001,43.999934 18,37.999972 Z"/>
 <path style="fill:#e4e4e4" d="m 18,21.999947 h 6.000001 V 43.999934 L 18,37.999972 Z"/>
 <rect style="opacity:0.2" width="8" height="28" x="15" y="-38" rx="3.999" ry="3.999" transform="rotate(90)"/>
 <rect style="fill:#ec8a2b" width="8" height="28" x="14" y="-38" rx="3.999" ry="3.999" transform="rotate(90)"/>
 <rect style="fill:#d13808" width="8" height="10" x="20" y="4"/>
 <rect style="opacity:0.2" width="12" height="4" x="18" y="5" rx="1.999" ry="1.999"/>
 <rect style="fill:#ec8a2b" width="12" height="4" x="18" y="4" rx="1.999" ry="1.999"/>
 <path style="fill:#ffffff;opacity:0.2" d="M 14 14 C 11.784475 14 10 15.782878 10 17.998047 L 10 18.001953 C 10 18.172897 10.028206 18.33482 10.048828 18.5 C 10.295439 16.524709 11.955447 15 14 15 L 34 15 C 36.044553 15 37.704561 16.524709 37.951172 18.5 C 37.971794 18.33482 38 18.172897 38 18.001953 L 38 17.998047 C 38 15.782878 36.215525 14 34 14 L 14 14 z"/>
 <path style="fill:#ffffff;opacity:0.2" d="M 19.998047 4 C 18.890601 4 18 4.8922771 18 6 C 18 6.1737913 18.029031 6.3394495 18.070312 6.5 C 18.292153 5.6372227 19.064349 5 19.998047 5 L 28.001953 5 C 28.935651 5 29.707847 5.6372227 29.929688 6.5 C 29.970969 6.3394495 30 6.1737913 30 6 C 30 4.8922771 29.109399 4 28.001953 4 L 19.998047 4 z"/>
</svg>
